src/assets/img/firebase.svg

<svg width="56" height="76" viewBox="0 0 56 76" fill="none" xmlns="http://www.w3.org/2000/svg">
<path d="M2.34766 49.4649L9.82422 1.95405C10.082 0.334846 12.2734 -0.0486502 13.0469 1.40011L21.082 16.3138L2.34766 49.4649ZM55.5 61.0124L48.3672 17.2513C48.1523 15.8877 46.4336 15.3338 45.4453 16.3138L0.5 61.0124L25.3789 74.8608C26.9258 75.7131 28.8594 75.7131 30.4062 74.8608L55.5 61.0124ZM35.3047 22.8333L29.5469 11.9675C28.9023 10.7318 27.1406 10.7318 26.4961 11.9675L1.1875 56.7087L35.3047 22.8333Z" fill="#f2c129"/>
</svg>

<svg width="56" height="76" fill="none" xmlns="http://www.w3.org/2000/svg"><path d="M2.348 49.465 9.824 1.954c.258-1.62 2.45-2.003 3.223-.554l8.035 14.914-18.734 33.15ZM55.5 61.012l-7.133-43.76c-.215-1.364-1.933-1.918-2.922-.938L.5 61.012l24.879 13.849a5.262 5.262 0 0 0 5.027 0L55.5 61.012ZM35.305 22.833l-5.758-10.865c-.645-1.236-2.406-1.236-3.05 0l-25.31 44.74 34.118-33.875Z" fill="#f2c129"/></svg>
